svg/seesaw.svg

<svg xmlns="http://www.w3.org/2000/svg" viewBox="0 0 24 24"><path d="m21.68 13.26.36 1.97-19.69 3.54L2 16.8l2.95-.53-.35-1.97c-.1-.54.26-1.06.81-1.16.54-.1 1.06.26 1.16.81l.35 1.96 9.84-1.76-.35-1.97c-.1-.55.26-1.07.81-1.18.54-.08 1.06.28 1.16.82l.35 1.97zM10.06 18.4 8 22h8l-2.42-4.23z"/></svg>

<?xml version="1.0" encoding="UTF-8"?><!DOCTYPE svg PUBLIC "-//W3C//DTD SVG 1.1//EN" "http://www.w3.org/Graphics/SVG/1.1/DTD/svg11.dtd"><svg xmlns="http://www.w3.org/2000/svg" xmlns:xlink="http://www.w3.org/1999/xlink" version="1.1" id="mdi-seesaw" width="24" height="24" viewBox="0 0 24 24"><path d="M21.68 13.26L22.04 15.23L2.35 18.77L2 16.8L4.95 16.27L4.6 14.3C4.5 13.76 4.86 13.24 5.41 13.14C5.95 13.04 6.47 13.4 6.57 13.95L6.92 15.91L16.76 14.15L16.41 12.18C16.31 11.63 16.67 11.11 17.22 11C17.76 10.92 18.28 11.28 18.38 11.82L18.73 13.79L21.68 13.26M10.06 18.4L8 22H16L13.58 17.77L10.06 18.4Z" /></svg>
